static/img/06- desktop-imac-pen-tablet-notebook.svg

<svg viewBox="0 0 178 178" xmlns="http://www.w3.org/2000/svg"><circle cx="88.5" cy="89" fill="#e8f4fa" r="81"/><path d="m162.31 119.4a.69.69 0 0 0 .23-1l-4.12-6.64 3.58-15.25a1.72 1.72 0 0 0 -1.29-2.07l-37-8.56a1.73 1.73 0 0 0 -2.07 1.29l-5.45 23.53a1.73 1.73 0 0 0 1.29 2.07l37 8.56a1.73 1.73 0 0 0 2.07-1.29l.8-3.46 2.28 3.69a.7.7 0 0 0 1 .22z" fill="#191816" opacity=".15"/><path d="m138.19 130.19-2.51 7a6.49 6.49 0 0 0 12.22 4.39l2.51-7a6.49 6.49 0 0 0 -12.22-4.39z" fill="#191816" opacity=".15"/><path d="m121.79 149.52a2.52 2.52 0 0 0 4.63-2l-8.42-20.09-4.3-3.63-.31 5.22a1.73 1.73 0 0 0 .14.77z" fill="#191816" opacity=".15"/><path d="m104.77 155.36h-44.85a5.18 5.18 0 0 1 -5.18-5.18v-9.49h55.2v9.49a5.17 5.17 0 0 1 -5.17 5.18z" fill="#191816" opacity=".15"/><path d="m103 110.51h-39.63a5.18 5.18 0 0 1 -5.18-5.18v-12.07h50v12.07a5.18 5.18 0 0 1 -5.19 5.18z" fill="#191816" opacity=".15"/><ellipse cx="83.21" cy="69.11" fill="#191816" opacity=".15" rx="45.71" ry="3.45"/><path d="m99.36 65.66h-32.3l-1.06 9a7.26 7.26 0 0 0 7.22 8.11h20a7.26 7.26 0 0 0 7.21-8.11z" fill="#191816" opacity=".15"/><path d="m103.91 106.19h-41.4a3.44 3.44 0 0 1 -3.45-3.45v-15.52a1.73 1.73 0 0 1 1.72-1.73h44.85a1.74 1.74 0 0 1 1.73 1.73v15.52a3.45 3.45 0 0 1 -3.45 3.45z" fill="#e0e0e0"/><path d="m105.63 85.49h-44.85a1.73 1.73 0 0 0 -1.72 1.73v5.17a3.45 3.45 0 0 1 3.45-3.45h41.4a3.46 3.46 0 0 1 3.45 3.45v-5.17a1.74 1.74 0 0 0 -1.73-1.73z" fill="#f0f0f0"/><g stroke="#191816" stroke-linecap="round" stroke-linejoin="round"><path d="m103.91 106.19h-41.4a3.44 3.44 0 0 1 -3.45-3.45v-15.52a1.73 1.73 0 0 1 1.72-1.73h44.85a1.74 1.74 0 0 1 1.73 1.73v15.52a3.45 3.45 0 0 1 -3.45 3.45z" fill="none"/><path d="m64.23 101.02h3.45" fill="none"/><path d="m64.23 95.84h3.45" fill="none"/><path d="m64.23 90.67h3.45" fill="none"/><path d="m71.13 95.84h3.45" fill="none"/><path d="m71.13 90.67h3.45" fill="none"/><path d="m78.03 95.84h3.45" fill="none"/><path d="m78.03 90.67h3.45" fill="none"/><path d="m84.93 95.84h3.45" fill="none"/><path d="m84.93 90.67h3.45" fill="none"/><path d="m91.83 95.84h3.45" fill="none"/><path d="m91.83 90.67h3.45" fill="none"/><path d="m98.73 101.02h3.45" fill="none"/><path d="m98.73 95.84h3.45" fill="none"/><path d="m98.73 90.67h3.45" fill="none"/><path d="m71.13 101.02h24.15" fill="none"/><path d="m139.24 89.97 3.35.8" fill="none"/><path d="m133.62 113.45-15.1-3.61a1.72 1.72 0 0 1 -1.28-2.07l4.82-20.14a1.72 1.72 0 0 1 2.08-1.27l15.1 3.64z" fill="#fff5e3"/><path d="m154.15 116.59a1.72 1.72 0 0 1 -2.08 1.28l-15.07-3.61 5.61-23.49 15.1 3.61a1.72 1.72 0 0 1 1.29 2.08z" fill="#fff5e3"/><path d="m136.76 92.92 6.71 1.61" fill="none"/><path d="m135.95 96.28 6.71 1.6" fill="none"/><path d="m135.15 99.63 6.71 1.61" fill="none"/><path d="m134.35 102.99 6.71 1.6" fill="none"/><path d="m133.55 106.34 6.71 1.61" fill="none"/><path d="m132.74 109.7 6.72 1.6" fill="none"/><path d="m133.62 113.45 3.36.81" fill="none"/></g><path d="m155.12 100.93h3.45v13.8h-3.45z" fill="#ff6242" transform="matrix(.84989269 -.5269558 .5269558 .84989269 -33.28 98.82)"/><path d="m150.48 97.57 1.26 5.31 2.93-1.82z" fill="#ffe3cf" stroke="#191816" stroke-linecap="round" stroke-linejoin="round"/><path d="m162.3 116.63a1.73 1.73 0 0 1 -2.38-.56l-.92-1.47 2.93-1.81.91 1.46a1.72 1.72 0 0 1 -.54 2.38z" fill="#ffb0ca" stroke="#191816" stroke-linecap="round" stroke-linejoin="round"/><path d="m155.12 100.93h3.45v13.8h-3.45z" fill="none" stroke="#191816" stroke-linecap="round" stroke-linejoin="round" transform="matrix(.84989269 -.5269558 .5269558 .84989269 -33.28 98.82)"/><path d="m147 35.47h-127.56a6.11 6.11 0 0 0 -5.55 8.67h138.63a6.11 6.11 0 0 0 -5.52-8.67z" fill="#e0e0e0"/><path d="m147 35.47h-127.56a6.11 6.11 0 0 0 -5.55 8.67h138.63a6.11 6.11 0 0 0 -5.52-8.67z" fill="none" stroke="#191816" stroke-linecap="round" stroke-linejoin="round"/><path d="m90.87 49.27h-15.33a6.9 6.9 0 0 0 -6.85 6.09l-1.83 15.53a6.9 6.9 0 0 0 6.85 7.7h19a6.9 6.9 0 0 0 6.85-7.7l-1.84-15.53a6.9 6.9 0 0 0 -6.85-6.09z" fill="#e0e0e0"/><path d="m99.34 69.11-1.62-13.75a6.9 6.9 0 0 0 -6.85-6.09h-15.33a6.9 6.9 0 0 0 -6.85 6.09l-1.62 13.75z" fill="#bdbec0"/><path d="m90.87 49.27h-15.33a6.9 6.9 0 0 0 -6.85 6.09l-1.83 15.53a6.9 6.9 0 0 0 6.85 7.7h19a6.9 6.9 0 0 0 6.85-7.7l-1.84-15.53a6.9 6.9 0 0 0 -6.85-6.09z" fill="none" stroke="#191816" stroke-linecap="round" stroke-linejoin="round"/><path d="m149.56 38.92h-132.71a3.45 3.45 0 0 0 -3 5.22l10.92 18.14a5.18 5.18 0 0 0 4.44 2.51h108a5.18 5.18 0 0 0 4.44-2.51l10.88-18.14a3.45 3.45 0 0 0 -2.97-5.22z" fill="#00b8f0"/><path d="m29.21 64.79h28.12l25.88-25.87h-66.36a3.45 3.45 0 0 0 -3 5.22l10.92 18.14a5.18 5.18 0 0 0 4.44 2.51z" fill="#4acfff"/><path d="m149.56 38.92h-132.71a3.45 3.45 0 0 0 -3 5.22l10.92 18.14a5.18 5.18 0 0 0 4.44 2.51h108a5.18 5.18 0 0 0 4.44-2.51l10.88-18.14a3.45 3.45 0 0 0 -2.97-5.22z" fill="none" stroke="#191816" stroke-linecap="round" stroke-linejoin="round"/><path d="m23.18 59.62 1.59 2.66a5.18 5.18 0 0 0 4.44 2.51h108a5.18 5.18 0 0 0 4.44-2.51l1.6-2.66z" fill="#e0e0e0"/><path d="m23.18 59.62 1.59 2.66a5.18 5.18 0 0 0 4.44 2.51h108a5.18 5.18 0 0 0 4.44-2.51l1.6-2.66z" fill="none" stroke="#191816" stroke-linecap="round" stroke-linejoin="round"/><rect fill="#87898c" height="34.5" rx="3.45" width="53.47" x="55.61" y="116.54"/><path d="m105.63 116.54h-46.57a3.45 3.45 0 0 0 -3.45 3.46v3.45a3.45 3.45 0 0 1 3.45-3.45h46.57a3.45 3.45 0 0 1 3.45 3.45v-3.45a3.45 3.45 0 0 0 -3.45-3.46z" fill="#bdbec0"/><path d="m62.51 125.17v-3.45" fill="none" stroke="#191816" stroke-linecap="round" stroke-linejoin="round"/><path d="m62.51 145.87v-3.45" fill="none" stroke="#191816" stroke-linecap="round" stroke-linejoin="round"/><path d="m71.13 121.72h32.77v24.15h-32.77z" fill="#656769"/><path d="m71.13 121.72h32.77v3.45h-32.77z" fill="#87898c"/><rect fill="none" height="34.5" rx="3.45" stroke="#191816" stroke-linecap="round" stroke-linejoin="round" width="53.47" x="55.61" y="116.54"/><path d="m71.13 121.72h32.77v24.15h-32.77z" fill="none" stroke="#191816" stroke-linecap="round" stroke-linejoin="round"/><circle cx="63.37" cy="133.79" fill="#656769" r="4.31"/><path d="m63.37 132.07a4.29 4.29 0 0 1 4.09 3 4.31 4.31 0 1 0 -8.19 0 4.31 4.31 0 0 1 4.1-3z" fill="#87898c"/><circle cx="63.37" cy="133.79" fill="none" r="4.31" stroke="#191816" stroke-linecap="round" stroke-linejoin="round"/><path d="m122.41 145.68a1.72 1.72 0 1 0 3.17-1.35l-8.15-19-3-2.49-.22 3.85z" fill="#87898c"/><path d="m122.41 145.68a1.72 1.72 0 1 0 3.17-1.35l-8.15-19-3-2.49-.22 3.85z" fill="none" stroke="#191816" stroke-linecap="round" stroke-linejoin="round"/><circle cx="28.87" cy="105.33" fill="#191816" opacity=".15" r="12.08"/><path d="m19.72 113a2.59 2.59 0 0 1 -3.66-3.66l4.27-4.34 3.67 3.69z" fill="#fff" stroke="#191816" stroke-linecap="round" stroke-linejoin="round"/><circle cx="28.87" cy="100.16" fill="#fff" r="11.21" stroke="#191816" stroke-linecap="round" stroke-linejoin="round"/><circle cx="28.87" cy="100.16" fill="#bf8256" r="7.76"/><path d="m28.87 95.84a7.77 7.77 0 0 0 -7.56 6 8.17 8.17 0 0 1 -.2-1.72 7.76 7.76 0 1 1 15.52 0 7.57 7.57 0 0 1 -.21 1.72 7.75 7.75 0 0 0 -7.55-6z" fill="#915e3a"/><circle cx="28.87" cy="100.16" fill="none" r="7.76" stroke="#191816" stroke-linecap="round" stroke-linejoin="round"/><path d="m137.65 128.71-2.34 6.49a6 6 0 0 0 11.37 4.08l2.33-6.49a6 6 0 0 0 -11.36-4.08z" fill="#e0e0e0"/><path d="m145.37 125.07a6 6 0 0 0 -7.72 3.64l-1.46 4.06a6 6 0 1 1 11.36 4.08l1.46-4.06a6 6 0 0 0 -3.64-7.72z" fill="#f0f0f0"/><path d="m137.65 128.71-2.34 6.49a6 6 0 0 0 11.37 4.08l2.33-6.49a6 6 0 0 0 -11.36-4.08z" fill="none" stroke="#191816" stroke-linecap="round" stroke-linejoin="round"/><path d="m143.62 129.07a.87.87 0 0 0 -.29 1.68.93.93 0 0 0 .29.05.87.87 0 0 0 .29-1.68 1 1 0 0 0 -.29-.05z" fill="#191816"/></svg>

<svg id="Multicolor" xmlns="http://www.w3.org/2000/svg" viewBox="0 0 178 178"><defs><style>.cls-1{fill:#e8f4fa;}.cls-18,.cls-2{fill:#191816;}.cls-2{opacity:0.15;}.cls-3{fill:#e0e0e0;}.cls-4{fill:#f0f0f0;}.cls-5{fill:none;}.cls-15,.cls-5,.cls-6,.cls-8,.cls-9{stroke:#191816;stroke-linecap:round;stroke-linejoin:round;}.cls-6{fill:#fff5e3;}.cls-7{fill:#ff6242;}.cls-8{fill:#ffe3cf;}.cls-9{fill:#ffb0ca;}.cls-10{fill:#bdbec0;}.cls-11{fill:#00b8f0;}.cls-12{fill:#4acfff;}.cls-13{fill:#87898c;}.cls-14{fill:#656769;}.cls-15{fill:#fff;}.cls-16{fill:#bf8256;}.cls-17{fill:#915e3a;}</style></defs><title>06- desktop-imac-pen-tablet-notebook</title><g id="Background"><g id="New_Symbol_61-17" data-name="New Symbol 61"><circle class="cls-1" cx="88.5" cy="89" r="81"/></g></g><g id="Scene"><path class="cls-2" d="M162.31,119.4a.69.69,0,0,0,.23-1l-4.12-6.64L162,96.51a1.72,1.72,0,0,0-1.29-2.07l-37-8.56a1.73,1.73,0,0,0-2.07,1.29l-5.45,23.53a1.73,1.73,0,0,0,1.29,2.07l37,8.56a1.73,1.73,0,0,0,2.07-1.29l.8-3.46,2.28,3.69a.7.7,0,0,0,1,.22Z"/><path class="cls-2" d="M138.19,130.19l-2.51,7a6.49,6.49,0,0,0,12.22,4.39l2.51-7a6.49,6.49,0,0,0-12.22-4.39Z"/><path class="cls-2" d="M121.79,149.52a2.52,2.52,0,0,0,4.63-2L118,127.43l-4.3-3.63-.31,5.22a1.73,1.73,0,0,0,.14.77Z"/><path class="cls-2" d="M104.77,155.36H59.92a5.18,5.18,0,0,1-5.18-5.18v-9.49h55.2v9.49A5.17,5.17,0,0,1,104.77,155.36Z"/><path class="cls-2" d="M103,110.51H63.37a5.18,5.18,0,0,1-5.18-5.18V93.26h50v12.07A5.18,5.18,0,0,1,103,110.51Z"/><ellipse class="cls-2" cx="83.21" cy="69.11" rx="45.71" ry="3.45"/><path class="cls-2" d="M99.36,65.66H67.06l-1.06,9a7.26,7.26,0,0,0,7.22,8.11h20a7.26,7.26,0,0,0,7.21-8.11Z"/><path class="cls-3" d="M103.91,106.19H62.51a3.44,3.44,0,0,1-3.45-3.45V87.22a1.73,1.73,0,0,1,1.72-1.73h44.85a1.74,1.74,0,0,1,1.73,1.73v15.52A3.45,3.45,0,0,1,103.91,106.19Z"/><path class="cls-4" d="M105.63,85.49H60.78a1.73,1.73,0,0,0-1.72,1.73v5.17a3.45,3.45,0,0,1,3.45-3.45h41.4a3.46,3.46,0,0,1,3.45,3.45V87.22A1.74,1.74,0,0,0,105.63,85.49Z"/><path class="cls-5" d="M103.91,106.19H62.51a3.44,3.44,0,0,1-3.45-3.45V87.22a1.73,1.73,0,0,1,1.72-1.73h44.85a1.74,1.74,0,0,1,1.73,1.73v15.52A3.45,3.45,0,0,1,103.91,106.19Z"/><line class="cls-5" x1="64.23" y1="101.02" x2="67.68" y2="101.02"/><line class="cls-5" x1="64.23" y1="95.84" x2="67.68" y2="95.84"/><line class="cls-5" x1="64.23" y1="90.67" x2="67.68" y2="90.67"/><line class="cls-5" x1="71.13" y1="95.84" x2="74.58" y2="95.84"/><line class="cls-5" x1="71.13" y1="90.67" x2="74.58" y2="90.67"/><line class="cls-5" x1="78.03" y1="95.84" x2="81.48" y2="95.84"/><line class="cls-5" x1="78.03" y1="90.67" x2="81.48" y2="90.67"/><line class="cls-5" x1="84.93" y1="95.84" x2="88.38" y2="95.84"/><line class="cls-5" x1="84.93" y1="90.67" x2="88.38" y2="90.67"/><line class="cls-5" x1="91.83" y1="95.84" x2="95.28" y2="95.84"/><line class="cls-5" x1="91.83" y1="90.67" x2="95.28" y2="90.67"/><line class="cls-5" x1="98.73" y1="101.02" x2="102.18" y2="101.02"/><line class="cls-5" x1="98.73" y1="95.84" x2="102.18" y2="95.84"/><line class="cls-5" x1="98.73" y1="90.67" x2="102.18" y2="90.67"/><line class="cls-5" x1="71.13" y1="101.02" x2="95.28" y2="101.02"/><line class="cls-5" x1="139.24" y1="89.97" x2="142.59" y2="90.77"/><path class="cls-6" d="M133.62,113.45l-15.1-3.61a1.72,1.72,0,0,1-1.28-2.07l4.82-20.14a1.72,1.72,0,0,1,2.08-1.27L139.24,90Z"/><path class="cls-6" d="M154.15,116.59a1.72,1.72,0,0,1-2.08,1.28L137,114.26l5.61-23.49,15.1,3.61A1.72,1.72,0,0,1,159,96.46Z"/><line class="cls-5" x1="136.76" y1="92.92" x2="143.47" y2="94.53"/><line class="cls-5" x1="135.95" y1="96.28" x2="142.66" y2="97.88"/><line class="cls-5" x1="135.15" y1="99.63" x2="141.86" y2="101.24"/><line class="cls-5" x1="134.35" y1="102.99" x2="141.06" y2="104.59"/><line class="cls-5" x1="133.55" y1="106.34" x2="140.26" y2="107.95"/><line class="cls-5" x1="132.74" y1="109.7" x2="139.46" y2="111.3"/><line class="cls-5" x1="133.62" y1="113.45" x2="136.98" y2="114.26"/><rect class="cls-7" x="155.12" y="100.93" width="3.45" height="13.8" transform="translate(-33.28 98.82) rotate(-31.8)"/><polygon class="cls-8" points="150.48 97.57 151.74 102.88 154.67 101.06 150.48 97.57"/><path class="cls-9" d="M162.3,116.63h0a1.73,1.73,0,0,1-2.38-.56L159,114.6l2.93-1.81.91,1.46A1.72,1.72,0,0,1,162.3,116.63Z"/><rect class="cls-5" x="155.12" y="100.93" width="3.45" height="13.8" transform="translate(-33.28 98.82) rotate(-31.8)"/><path class="cls-3" d="M147,35.47H19.44a6.11,6.11,0,0,0-5.55,8.67H152.52A6.11,6.11,0,0,0,147,35.47Z"/><path class="cls-5" d="M147,35.47H19.44a6.11,6.11,0,0,0-5.55,8.67H152.52A6.11,6.11,0,0,0,147,35.47Z"/><path class="cls-3" d="M90.87,49.27H75.54a6.9,6.9,0,0,0-6.85,6.09L66.86,70.89a6.9,6.9,0,0,0,6.85,7.7h19a6.9,6.9,0,0,0,6.85-7.7L97.72,55.36A6.9,6.9,0,0,0,90.87,49.27Z"/><path class="cls-10" d="M99.34,69.11,97.72,55.36a6.9,6.9,0,0,0-6.85-6.09H75.54a6.9,6.9,0,0,0-6.85,6.09L67.07,69.11Z"/><path class="cls-5" d="M90.87,49.27H75.54a6.9,6.9,0,0,0-6.85,6.09L66.86,70.89a6.9,6.9,0,0,0,6.85,7.7h19a6.9,6.9,0,0,0,6.85-7.7L97.72,55.36A6.9,6.9,0,0,0,90.87,49.27Z"/><path class="cls-11" d="M149.56,38.92H16.85a3.45,3.45,0,0,0-3,5.22L24.77,62.28a5.18,5.18,0,0,0,4.44,2.51h108a5.18,5.18,0,0,0,4.44-2.51l10.88-18.14A3.45,3.45,0,0,0,149.56,38.92Z"/><path class="cls-12" d="M29.21,64.79H57.33L83.21,38.92H16.85a3.45,3.45,0,0,0-3,5.22L24.77,62.28A5.18,5.18,0,0,0,29.21,64.79Z"/><path class="cls-5" d="M149.56,38.92H16.85a3.45,3.45,0,0,0-3,5.22L24.77,62.28a5.18,5.18,0,0,0,4.44,2.51h108a5.18,5.18,0,0,0,4.44-2.51l10.88-18.14A3.45,3.45,0,0,0,149.56,38.92Z"/><path class="cls-3" d="M23.18,59.62l1.59,2.66a5.18,5.18,0,0,0,4.44,2.51h108a5.18,5.18,0,0,0,4.44-2.51l1.6-2.66Z"/><path class="cls-5" d="M23.18,59.62l1.59,2.66a5.18,5.18,0,0,0,4.44,2.51h108a5.18,5.18,0,0,0,4.44-2.51l1.6-2.66Z"/><rect class="cls-13" x="55.61" y="116.54" width="53.47" height="34.5" rx="3.45" ry="3.45"/><path class="cls-10" d="M105.63,116.54H59.06A3.45,3.45,0,0,0,55.61,120v3.45A3.45,3.45,0,0,1,59.06,120h46.57a3.45,3.45,0,0,1,3.45,3.45V120A3.45,3.45,0,0,0,105.63,116.54Z"/><line class="cls-5" x1="62.51" y1="125.17" x2="62.51" y2="121.72"/><line class="cls-5" x1="62.51" y1="145.87" x2="62.51" y2="142.42"/><rect class="cls-14" x="71.13" y="121.72" width="32.77" height="24.15"/><rect class="cls-13" x="71.13" y="121.72" width="32.77" height="3.45"/><rect class="cls-5" x="55.61" y="116.54" width="53.47" height="34.5" rx="3.45" ry="3.45"/><rect class="cls-5" x="71.13" y="121.72" width="32.77" height="24.15"/><circle class="cls-14" cx="63.37" cy="133.79" r="4.31"/><path class="cls-13" d="M63.37,132.07a4.29,4.29,0,0,1,4.09,3,4.31,4.31,0,1,0-8.19,0A4.31,4.31,0,0,1,63.37,132.07Z"/><circle class="cls-5" cx="63.37" cy="133.79" r="4.31"/><path class="cls-13" d="M122.41,145.68a1.72,1.72,0,1,0,3.17-1.35l-8.15-19-3-2.49-.22,3.85Z"/><path class="cls-5" d="M122.41,145.68a1.72,1.72,0,1,0,3.17-1.35l-8.15-19-3-2.49-.22,3.85Z"/><circle class="cls-2" cx="28.87" cy="105.33" r="12.08"/><path class="cls-15" d="M19.72,113a2.59,2.59,0,0,1-3.66-3.66L20.33,105,24,108.69Z"/><circle class="cls-15" cx="28.87" cy="100.16" r="11.21"/><circle class="cls-16" cx="28.87" cy="100.16" r="7.76"/><path class="cls-17" d="M28.87,95.84a7.77,7.77,0,0,0-7.56,6,8.17,8.17,0,0,1-.2-1.72,7.76,7.76,0,1,1,15.52,0,7.57,7.57,0,0,1-.21,1.72A7.75,7.75,0,0,0,28.87,95.84Z"/><circle class="cls-5" cx="28.87" cy="100.16" r="7.76"/><path class="cls-3" d="M137.65,128.71l-2.34,6.49a6,6,0,0,0,11.37,4.08l2.33-6.49a6,6,0,0,0-11.36-4.08Z"/><path class="cls-4" d="M145.37,125.07a6,6,0,0,0-7.72,3.64l-1.46,4.06a6,6,0,1,1,11.36,4.08l1.46-4.06A6,6,0,0,0,145.37,125.07Z"/><path class="cls-5" d="M137.65,128.71l-2.34,6.49a6,6,0,0,0,11.37,4.08l2.33-6.49a6,6,0,0,0-11.36-4.08Z"/><path class="cls-18" d="M143.62,129.07a.87.87,0,0,0-.29,1.68.93.93,0,0,0,.29.05.87.87,0,0,0,.29-1.68,1,1,0,0,0-.29-.05Z"/></g></svg>
